X: 1299
T: An Imaginary Place
R: reel
M: 4/4
K: Edorian
|:"G"gedB "C"AGED|"Em"EGGG Bdeg|"Bm"fdBF DFBd|"Bm"fdBF fBeB|
"G"gedB "C"AGED|"Em"EGGG Bdeg|"Bm"fdBF DFBd|"Bm"fBgB "Em"e4:|
"Bm"fdBd gfed|"Em"eBBB ABGE|"Bm"fdBd gfed|"Em"eBAB GF E2|
"Bm"fdBd gfed|"Em"eBBB ABGE|"Bm"DFBd fdBF|"Bm"fBgB "Em"e4:|

